;FLAVOR:Marlin
;TIME:10741
;Filament used: 2.34209m
;Layer height: 0.1
;MINX:89.7
;MINY:139.733
;MINZ:0.3
;MAXX:210.3
;MAXY:235.333
;MAXZ:1.7
;TARGET_MACHINE.NAME:Unknown
;Generated with Cura_SteamEngine 5.12.0
M104 S200
M105
M109 S200
G28 ;Home
G1 Z15.0 F6000 ;Move the platform down 15mm
;Prime the extruder
G92 E0
G1 F200 E3
G92 E0
M82 ;absolute extrusion mode
G92 E0
G92 E0
G1 F1500 E-6.5
;LAYER_COUNT:15
;LAYER:0
M107
G0 F3600 X93.243 Y140.993 Z0.3
;TYPE:SKIRT
G1 F1500 E0
G1 F1800 X95.222 Y140.007 E0.04159
G1 X96.746 Y139.785 E0.07056
G1 X203.122 Y139.733 E2.07155
G1 X205.179 Y140.155 E2.11105
G1 X206.95 Y141.15 E2.14926
G1 X207.948 Y141.923 E2.17301
G1 X209.04 Y143.276 E2.20571
G1 X210.026 Y145.255 E2.2473
G1 X210.248 Y146.779 E2.27627
G1 X210.3 Y228.155 E3.807
G1 X209.878 Y230.212 E3.8465
G1 X208.883 Y231.983 E3.88471
G1 X208.11 Y232.981 E3.90846
G1 X206.757 Y234.073 E3.94116
G1 X204.778 Y235.059 E3.98276
G1 X203.254 Y235.281 E4.01173
G1 X96.783 Y235.333 E6.0145
G1 X94.782 Y234.894 E6.05304
G1 X92.996 Y233.894 E6.09154
G1 X92.053 Y233.155 E6.11408
G1 X90.972 Y231.809 E6.14655
G1 X89.974 Y229.793 E6.18887
G1 X89.752 Y228.287 E6.2175
G1 X89.7 Y146.911 E7.74823
G1 X90.122 Y144.854 E7.78773
G1 X91.117 Y143.083 E7.82594
G1 X91.89 Y142.085 E7.84969
G1 X93.243 Y140.993 E7.88239
G0 F3600 X93.46 Y141.332
G1 F1800 X95.342 Y140.394 E7.92195
G1 X96.804 Y140.181 E7.94974
G1 X203.081 Y140.133 E9.94887
G1 X205.038 Y140.535 E9.98645
G1 X206.705 Y141.466 E10.02236
G1 X207.667 Y142.211 E10.04525
G1 X208.701 Y143.493 E10.07623
G1 X209.639 Y145.375 E10.11579
G1 X209.852 Y146.837 E10.14358
G1 X209.9 Y228.114 E11.67245
G1 X209.498 Y230.071 E11.71003
G1 X208.567 Y231.738 E11.74594
G1 X207.822 Y232.7 E11.76883
G1 X206.54 Y233.734 E11.79981
G1 X204.658 Y234.672 E11.83937
G1 X203.196 Y234.885 E11.86716
G1 X96.828 Y234.933 E13.868
G1 X94.924 Y234.515 E13.90467
G1 X93.243 Y233.579 E13.94086
G1 X92.337 Y232.869 E13.96251
G1 X91.308 Y231.588 E13.99342
G1 X90.361 Y229.675 E14.03357
G1 X90.148 Y228.229 E14.06107
G1 X90.1 Y146.952 E15.58993
G1 X90.502 Y144.995 E15.62751
G1 X91.433 Y143.328 E15.66343
G1 X92.178 Y142.366 E15.68632
G1 X93.46 Y141.332 E15.7173
G0 F3600 X93.677 Y141.671
G1 F1800 X95.462 Y140.781 E15.75482
G1 X96.862 Y140.577 E15.78143
G1 X203.039 Y140.533 E17.77868
G1 X204.897 Y140.915 E17.81436
G1 X206.46 Y141.782 E17.84798
G1 X207.386 Y142.499 E17.87001
G1 X208.362 Y143.71 E17.89927
G1 X209.252 Y145.495 E17.93679
G1 X209.456 Y146.895 E17.9634
G1 X209.5 Y228.072 E19.49038
G1 X209.118 Y229.93 E19.52606
G1 X208.251 Y231.493 E19.55969
G1 X207.534 Y232.419 E19.58172
G1 X206.323 Y233.395 E19.61097
G1 X204.538 Y234.285 E19.64849
G1 X203.138 Y234.489 E19.6751
G1 X96.873 Y234.533 E21.67401
G1 X95.067 Y234.136 E21.70879
G1 X93.49 Y233.264 E21.74269
G1 X92.621 Y232.583 E21.76346
G1 X91.644 Y231.367 E21.7928
G1 X90.748 Y229.557 E21.83079
G1 X90.544 Y228.171 E21.85714
G1 X90.5 Y146.994 E23.38413
G1 X90.882 Y145.136 E23.41981
G1 X91.749 Y143.573 E23.45343
G1 X92.466 Y142.647 E23.47546
G1 X93.677 Y141.671 E23.50471
G0 F3600 X93.897 Y142.008
G1 F1800 X95.582 Y141.168 E23.54013
G1 X96.92 Y140.973 E23.56557
G1 X202.997 Y140.933 E25.56093
G1 X204.757 Y141.295 E25.59473
G1 X206.266 Y142.132 E25.62719
G1 X207.102 Y142.784 E25.64713
G1 X208.025 Y143.93 E25.67481
G1 X208.865 Y145.615 E25.71023
G1 X209.06 Y146.953 E25.73566
G1 X209.1 Y228.03 E27.26077
G1 X208.738 Y229.79 E27.29457
G1 X207.901 Y231.299 E27.32703
G1 X207.249 Y232.135 E27.34697
G1 X206.103 Y233.058 E27.37465
G1 X204.418 Y233.898 E27.41006
G1 X203.08 Y234.093 E27.4355
G1 X96.918 Y234.133 E29.43247
G1 X95.209 Y233.757 E29.46538
G1 X93.737 Y232.949 E29.49697
G1 X92.905 Y232.297 E29.51685
G1 X91.983 Y231.15 E29.54453
G1 X91.135 Y229.436 E29.5805
G1 X90.94 Y228.113 E29.60566
G1 X90.9 Y147.036 E31.13076
G1 X91.262 Y145.276 E31.16456
G1 X92.099 Y143.767 E31.19702
G1 X92.751 Y142.931 E31.21697
G1 X93.897 Y142.008 E31.24464
G0 F3600 X94.117 Y142.345
G1 F1800 X95.702 Y141.555 E31.27796
G1 X96.978 Y141.369 E31.30221
G1 X202.955 Y141.333 E33.2957
G1 X204.617 Y141.675 E33.32762
G1 X206.072 Y142.482 E33.35892
G1 X206.817 Y143.068 E33.37675
G1 X207.688 Y144.15 E33.40287
G1 X208.478 Y145.735 E33.43619
G1 X208.664 Y147.011 E33.46044
G1 X208.7 Y227.988 E34.98366
G1 X208.358 Y229.65 E35.01558
G1 X207.551 Y231.105 E35.04688
G1 X206.965 Y231.85 E35.06471
G1 X205.883 Y232.721 E35.09084
G1 X204.298 Y233.511 E35.12415
G1 X203.022 Y233.697 E35.14841
G1 X96.963 Y233.733 E37.14344
G1 X95.349 Y233.378 E37.17452
G1 X93.984 Y232.634 E37.20376
G1 X93.186 Y232.009 E37.22283
G1 X92.321 Y230.932 E37.24882
G1 X91.522 Y229.318 E37.28269
G1 X91.336 Y228.055 E37.30671
G1 X91.3 Y147.078 E38.82993
G1 X91.642 Y145.416 E38.86185
G1 X92.449 Y143.961 E38.89314
G1 X93.035 Y143.216 E38.91097
G1 X94.117 Y142.345 E38.9371
G0 F3600 X94.335 Y142.684
G1 F1800 X95.823 Y141.942 E38.96838
G1 X97.036 Y141.765 E38.99144
G1 X202.913 Y141.733 E40.98304
G1 X204.477 Y142.055 E41.01308
G1 X205.878 Y142.832 E41.04322
G1 X206.532 Y143.353 E41.05894
G1 X207.349 Y144.368 E41.08345
G1 X208.091 Y145.856 E41.11473
G1 X208.268 Y147.069 E41.13779
G1 X208.3 Y227.946 E42.65913
G1 X207.978 Y229.51 E42.68917
G1 X207.201 Y230.911 E42.7193
G1 X206.68 Y231.565 E42.73503
G1 X205.665 Y232.382 E42.75954
G1 X204.177 Y233.124 E42.79082
G1 X202.964 Y233.301 E42.81388
G1 X97.008 Y233.333 E44.80697
G1 X95.489 Y232.999 E44.83622
G1 X94.231 Y232.319 E44.86312
G1 X93.47 Y231.723 E44.88131
G1 X92.657 Y230.711 E44.90572
G1 X91.909 Y229.2 E44.93744
G1 X91.732 Y227.997 E44.96031
G1 X91.7 Y147.12 E46.48165
G1 X92.022 Y145.556 E46.51169
G1 X92.799 Y144.155 E46.54183
G1 X93.32 Y143.501 E46.55755
G1 X94.335 Y142.684 E46.58206
G0 F3600 X94.555 Y143.021
G1 F1800 X95.943 Y142.329 E46.61124
G1 X97.094 Y142.161 E46.63312
G1 X202.871 Y142.133 E48.62284
G1 X204.338 Y142.435 E48.65102
G1 X205.629 Y143.145 E48.67873
G1 X206.246 Y143.637 E48.69357
G1 X207.012 Y144.588 E48.71654
G1 X207.704 Y145.976 E48.74572
G1 X207.872 Y147.127 E48.7676
G1 X207.9 Y227.904 E50.28706
G1 X207.598 Y229.371 E50.31523
G1 X206.888 Y230.662 E50.34295
G1 X206.396 Y231.279 E50.35779
G1 X205.445 Y232.045 E50.38076
G1 X204.057 Y232.737 E50.40994
G1 X202.906 Y232.905 E50.43182
G1 X97.053 Y232.933 E52.42297
G1 X95.63 Y232.62 E52.45038
G1 X94.478 Y232.004 E52.47495
G1 X93.754 Y231.437 E52.49225
G1 X92.993 Y230.49 E52.5151
G1 X92.296 Y229.082 E52.54465
G1 X92.128 Y227.939 E52.56639
G1 X92.1 Y147.162 E54.08585
G1 X92.402 Y145.695 E54.11402
G1 X93.112 Y144.404 E54.14173
G1 X93.604 Y143.787 E54.15658
G1 X94.555 Y143.021 E54.17955
G0 F3600 X94.771 Y143.36
G1 F1800 X96.063 Y142.716 E54.2067
G1 X97.152 Y142.557 E54.22741
G1 X202.829 Y142.533 E56.21525
G1 X204.2 Y142.815 E56.24158
G1 X205.38 Y143.458 E56.26686
G1 X205.963 Y143.923 E56.28088
G1 X206.673 Y144.804 E56.30217
G1 X207.317 Y146.096 E56.32932
G1 X207.476 Y147.185 E56.35002
G1 X207.5 Y227.862 E57.8676
G1 X207.218 Y229.233 E57.89393
G1 X206.575 Y230.413 E57.91921
G1 X206.11 Y230.996 E57.93324
G1 X205.229 Y231.706 E57.95452
G1 X203.937 Y232.35 E57.98168
G1 X202.848 Y232.509 E58.00238
G1 X97.098 Y232.533 E59.9916
G1 X95.77 Y232.241 E60.01717
G1 X94.667 Y231.651 E60.0407
G1 X94.039 Y231.152 E60.05579
G1 X93.329 Y230.269 E60.0771
G1 X92.683 Y228.964 E60.1045
G1 X92.524 Y227.881 E60.12509
G1 X92.5 Y147.204 E61.64266
G1 X92.782 Y145.833 E61.66899
G1 X93.425 Y144.653 E61.69427
G1 X93.89 Y144.07 E61.7083
G1 X94.771 Y143.36 E61.72958
G0 F3600 X94.991 Y143.697
G1 F1800 X96.183 Y143.103 E61.75464
G1 X97.21 Y142.953 E61.77416
G1 X202.787 Y142.933 E63.76012
G1 X204.062 Y143.195 E63.78461
G1 X205.131 Y143.771 E63.80745
G1 X205.678 Y144.207 E63.82061
G1 X206.336 Y145.024 E63.84034
G1 X206.93 Y146.216 E63.86539
G1 X207.08 Y147.243 E63.88491
G1 X207.1 Y227.82 E65.40061
G1 X206.838 Y229.095 E65.4251
G1 X206.262 Y230.164 E65.44794
G1 X205.826 Y230.711 E65.4611
G1 X205.009 Y231.369 E65.48083
G1 X203.817 Y231.963 E65.50588
G1 X202.79 Y232.113 E65.5254
G1 X97.143 Y232.133 E67.51268
G1 X95.91 Y231.862 E67.53643
G1 X94.856 Y231.298 E67.55892
G1 X94.325 Y230.869 E67.57176
G1 X93.665 Y230.048 E67.59157
G1 X93.07 Y228.846 E67.6168
G1 X92.92 Y227.823 E67.63625
G1 X92.9 Y147.246 E69.15195
G1 X93.162 Y145.971 E69.17643
G1 X93.738 Y144.902 E69.19927
G1 X94.174 Y144.355 E69.21243
G1 X94.991 Y143.697 E69.23217
G0 F3600 X95.211 Y144.034
G1 F1800 X96.303 Y143.49 E69.25511
G1 X97.268 Y143.349 E69.27346
G1 X202.746 Y143.333 E71.25756
G1 X203.924 Y143.575 E71.28018
G1 X204.941 Y144.123 E71.30191
G1 X205.391 Y144.489 E71.31282
G1 X205.999 Y145.244 E71.33106
G1 X206.543 Y146.336 E71.35401
G1 X206.684 Y147.301 E71.37235
G1 X206.7 Y227.779 E72.88619
G1 X206.458 Y228.957 E72.90881
G1 X205.91 Y229.974 E72.93054
G1 X205.544 Y230.424 E72.94145
G1 X204.789 Y231.032 E72.95969
G1 X203.697 Y231.576 E72.98263
G1 X202.732 Y231.717 E73.00098
G1 X97.188 Y231.733 E74.98632
G1 X96.05 Y231.483 E75.00824
G1 X95.078 Y230.963 E75.02897
G1 X94.611 Y230.585 E75.04027
G1 X94.001 Y229.827 E75.05858
G1 X93.457 Y228.728 E75.08164
G1 X93.316 Y227.765 E75.09995
G1 X93.3 Y147.287 E76.61379
G1 X93.542 Y146.109 E76.63641
G1 X94.09 Y145.092 E76.65814
G1 X94.456 Y144.642 E76.66905
G1 X95.211 Y144.034 E76.68729
G0 F3600 X95.431 Y144.371
G1 F1800 X96.423 Y143.877 E76.70813
G1 X97.326 Y143.745 E76.7253
G1 X202.705 Y143.733 E78.70754
G1 X203.786 Y143.955 E78.72829
G1 X204.694 Y144.438 E78.74764
G1 X205.079 Y144.74 E78.75684
G1 X205.662 Y145.464 E78.77433
G1 X206.156 Y146.456 E78.79518
G1 X206.288 Y147.359 E78.81234
G1 X206.3 Y227.738 E80.32432
G1 X206.078 Y228.819 E80.34507
G1 X205.595 Y229.727 E80.36442
G1 X205.293 Y230.112 E80.37362
G1 X204.569 Y230.695 E80.39111
G1 X203.577 Y231.189 E80.41196
G1 X202.674 Y231.321 E80.42912
G1 X97.233 Y231.333 E82.41253
G1 X96.19 Y231.104 E82.43261
G1 X95.267 Y230.61 E82.45231
G1 X94.898 Y230.303 E82.46133
G1 X94.339 Y229.608 E82.47811
G1 X93.844 Y228.609 E82.49908
G1 X93.712 Y227.707 E82.51623
G1 X93.7 Y147.328 E84.02821
G1 X93.922 Y146.247 E84.04896
G1 X94.405 Y145.339 E84.06831
G1 X94.707 Y144.954 E84.07751
G1 X95.431 Y144.371 E84.095
G0 F3600 X95.651 Y144.708
G1 F1800 X96.543 Y144.264 E84.11374
G1 X97.384 Y144.141 E84.12973
G1 X202.664 Y144.133 E86.11011
G1 X203.65 Y144.335 E86.12904
G1 X204.455 Y144.759 E86.14615
G1 X204.767 Y144.991 E86.15347
G1 X205.325 Y145.684 E86.1702
G1 X205.769 Y146.576 E86.18895
G1 X205.892 Y147.417 E86.20493
G1 X205.9 Y227.697 E87.71504
G1 X205.698 Y228.683 E87.73398
G1 X205.274 Y229.488 E87.75109
G1 X205.042 Y229.8 E87.75841
G1 X204.349 Y230.358 E87.77514
G1 X203.457 Y230.802 E87.79388
G1 X202.616 Y230.925 E87.80987
G1 X97.278 Y230.933 E89.79134
G1 X96.33 Y230.725 E89.8096
G1 X95.456 Y230.257 E89.82824
G1 X95.21 Y230.052 E89.83427
G1 X94.677 Y229.389 E89.85027
G1 X94.231 Y228.49 E89.86915
G1 X94.108 Y227.649 E89.88513
G1 X94.1 Y147.369 E91.39525
G1 X94.302 Y146.383 E91.41418
G1 X94.726 Y145.578 E91.43129
G1 X94.958 Y145.266 E91.43861
G1 X95.651 Y144.708 E91.45534
G0 F3600 X95.867 Y145.047
G1 F1800 X96.663 Y144.651 E91.47207
G1 X97.442 Y144.537 E91.48688
G1 X202.623 Y144.533 E93.46539
G1 X203.513 Y144.715 E93.48248
G1 X204.268 Y145.113 E93.49853
G1 X204.488 Y145.282 E93.50375
G1 X204.986 Y145.9 E93.51868
G1 X205.382 Y146.696 E93.5354
G1 X205.496 Y147.475 E93.55021
G1 X205.5 Y227.656 E95.05846
G1 X205.318 Y228.546 E95.07555
G1 X204.92 Y229.301 E95.0916
G1 X204.751 Y229.521 E95.09682
G1 X204.133 Y230.019 E95.11175
G1 X203.337 Y230.415 E95.12848
G1 X202.558 Y230.529 E95.14329
G1 X97.323 Y230.533 E97.12281
G1 X96.47 Y230.346 E97.13924
G1 X95.645 Y229.904 E97.15685
G1 X95.522 Y229.801 E97.15986
G1 X95.015 Y229.17 E97.17509
G1 X94.618 Y228.37 E97.19189
G1 X94.504 Y227.591 E97.2067
G1 X94.5 Y147.41 E98.71495
G1 X94.682 Y146.52 E98.73204
G1 X95.08 Y145.765 E98.74809
G1 X95.249 Y145.545 E98.75331
G1 X95.867 Y145.047 E98.76824
G0 F3600 X96.083 Y145.386
G1 F1800 X96.783 Y145.038 E98.78294
G1 X97.5 Y144.933 E98.79658
G1 X202.582 Y144.933 E100.77323
G1 X203.378 Y145.096 E100.78851
G1 X204.082 Y145.467 E100.80348
G1 X204.207 Y145.57 E100.80653
G1 X204.647 Y146.116 E100.81972
G1 X204.995 Y146.816 E100.83442
G1 X205.1 Y147.533 E100.84805
G1 X205.1 Y227.615 E102.35444
G1 X204.937 Y228.411 E102.36972
G1 X204.566 Y229.115 E102.38469
G1 X204.463 Y229.24 E102.38774
G1 X203.917 Y229.68 E102.40093
G1 X203.217 Y230.028 E102.41563
G1 X202.5 Y230.133 E102.42926
G1 X97.368 Y230.133 E104.40686
G1 X96.61 Y229.967 E104.42145
G1 X95.834 Y229.551 E104.43801
G1 X95.354 Y228.953 E104.45244
G1 X95.005 Y228.25 E104.4672
G1 X94.9 Y227.533 E104.48083
G1 X94.9 Y147.451 E105.98722
G1 X95.063 Y146.655 E106.0025
G1 X95.434 Y145.951 E106.01747
G1 X95.537 Y145.826 E106.02052
G1 X96.083 Y145.386 E106.03371
G0 F3600 X96.299 Y145.725
G1 F1800 X96.905 Y145.424 E106.04644
G1 X97.5 Y145.333 E106.05776
G1 X202.541 Y145.333 E108.03364
G1 X203.243 Y145.477 E108.04712
G1 X203.896 Y145.821 E108.061
G1 X204.308 Y146.332 E108.07335
G1 X204.609 Y146.938 E108.08608
G1 X204.7 Y147.533 E108.0974
G1 X204.7 Y227.574 E109.60302
G1 X204.556 Y228.276 E109.6165
G1 X204.212 Y228.929 E109.63038
G1 X203.701 Y229.341 E109.64273
G1 X203.095 Y229.642 E109.65546
G1 X202.5 Y229.733 E109.66678
G1 X97.413 Y229.733 E111.64352
G1 X96.747 Y229.587 E111.65635
G1 X96.097 Y229.238 E111.67023
G1 X95.692 Y228.734 E111.68239
G1 X95.391 Y228.128 E111.69512
G1 X95.3 Y227.533 E111.70644
G1 X95.3 Y147.492 E113.21205
G1 X95.444 Y146.79 E113.22553
G1 X95.788 Y146.137 E113.23942
G1 X96.299 Y145.725 E113.25177
G0 F3600 X96.477 Y146.083
G1 F1800 X97.026 Y145.81 E113.2633
G1 X97.5 Y145.733 E113.27233
G1 X202.5 Y145.733 E115.24744
G1 X203.106 Y145.857 E115.25908
G1 X203.638 Y146.138 E115.27039
G1 X203.95 Y146.51 E115.27953
G1 X204.223 Y147.059 E115.29106
G1 X204.3 Y147.533 E115.30009
G1 X204.3 Y227.533 E116.80494
G1 X204.176 Y228.139 E116.81657
G1 X203.895 Y228.671 E116.82789
G1 X203.523 Y228.983 E116.83702
G1 X202.974 Y229.256 E116.84856
G1 X202.5 Y229.333 E116.85759
G1 X97.458 Y229.333 E118.83349
G1 X96.884 Y229.207 E118.84454
G1 X96.359 Y228.925 E118.85575
G1 X96.05 Y228.556 E118.86481
G1 X95.777 Y228.007 E118.87634
G1 X95.7 Y227.533 E118.88537
G1 X95.7 Y147.533 E120.39022
G1 X95.824 Y146.927 E120.40185
G1 X96.105 Y146.395 E120.41317
G1 X96.477 Y146.083 E120.4223
G0 F3600 X96.655 Y146.441
G1 F1800 X97.149 Y146.195 E120.43268
G1 X97.5 Y146.133 E120.43939
G1 X202.5 Y146.133 E122.4145
G1 X202.919 Y146.211 E122.42251
G1 X203.383 Y146.456 E122.43238
G1 X203.592 Y146.688 E122.43826
G1 X203.838 Y147.182 E122.44864
G1 X203.9 Y147.533 E122.45534
G1 X203.9 Y227.533 E123.96019
G1 X203.822 Y227.952 E123.9682
G1 X203.577 Y228.416 E123.97807
G1 X203.345 Y228.625 E123.98395
G1 X202.851 Y228.871 E123.99433
G1 X202.5 Y228.933 E124.00103
G1 X97.458 Y228.933 E125.97693
G1 X96.977 Y228.818 E125.98623
G1 X96.617 Y228.61 E125.99406
G1 X96.408 Y228.378 E125.99993
G1 X96.162 Y227.884 E126.01031
G1 X96.1 Y227.533 E126.01701
G1 X96.1 Y147.533 E127.52186
G1 X96.178 Y147.114 E127.52988
G1 X96.423 Y146.65 E127.53975
G1 X96.655 Y146.441 E127.54562
G0 F3600 X96.845 Y146.793
G1 F1800 X96.707 Y146.932 E127.5493
G1 X96.57 Y147.195 E127.55488
G1 X96.5 Y147.533 E127.56138
G1 X96.5 Y227.533 E129.06622
G1 X96.554 Y227.806 E129.07146
G1 X96.76 Y228.188 E129.07962
G1 X96.899 Y228.326 E129.0833
G1 X97.162 Y228.463 E129.08888
G1 X97.5 Y228.533 E129.09537
G1 X202.5 Y228.533 E131.07048
G1 X202.773 Y228.479 E131.07572
G1 X203.155 Y228.273 E131.08388
G1 X203.293 Y228.134 E131.08757
G1 X203.43 Y227.871 E131.09314
G1 X203.5 Y227.533 E131.09964
G1 X203.5 Y147.533 E132.60448
