;FLAVOR:Marlin
;TIME:7898
;Filament used: 4.40523m
;Layer height: 0.3
;MINX:52.2
;MINY:54.9
;MINZ:0.3
;MAXX:247.8
;MAXY:150.5
;MAXZ:11.4
;TARGET_MACHINE.NAME:Unknown
;Generated with Cura_SteamEngine 5.12.0
M104 S200
M105
M109 S200
G28 ;Home
G1 Z15.0 F6000 ;Move the platform down 15mm
;Prime the extruder
G92 E0
G1 F200 E3
G92 E0
M82 ;absolute extrusion mode
G92 E0
G92 E0
G1 F1500 E-6.5
;LAYER_COUNT:38
;LAYER:0
M107
G0 F3600 X54.39 Y57.252 Z0.3
;TYPE:SKIRT
G1 F1500 E0
G1 F1800 X55.743 Y56.16 E0.03271
G1 X57.722 Y55.174 E0.0743
G1 X59.246 Y54.952 E0.10327
G1 X240.622 Y54.9 E3.51505
G1 X242.679 Y55.322 E3.55455
G1 X244.45 Y56.317 E3.59276
G1 X245.448 Y57.09 E3.61651
G1 X246.54 Y58.443 E3.64921
G1 X247.526 Y60.422 E3.6908
G1 X247.748 Y61.946 E3.71977
G1 X247.8 Y143.322 E5.2505
G1 X247.378 Y145.379 E5.29
G1 X246.383 Y147.15 E5.32821
G1 X245.61 Y148.148 E5.35196
G1 X244.257 Y149.24 E5.38466
G1 X242.278 Y150.226 E5.42625
G1 X240.754 Y150.448 E5.45522
G1 X59.283 Y150.5 E8.86879
G1 X57.282 Y150.061 E8.90733
G1 X55.496 Y149.061 E8.94583
G1 X54.553 Y148.322 E8.96837
G1 X53.472 Y146.976 E9.00084
G1 X52.474 Y144.96 E9.04316
G1 X52.252 Y143.454 E9.07179
G1 X52.2 Y62.078 E10.60252
G1 X52.622 Y60.021 E10.64202
G1 X53.617 Y58.25 E10.68023
G1 X54.39 Y57.252 E10.70398
G0 F3600 X54.678 Y57.533
G1 F1800 X55.96 Y56.499 E10.73496
G1 X57.842 Y55.561 E10.77451
G1 X59.304 Y55.348 E10.8023
G1 X240.581 Y55.3 E14.21222
G1 X242.538 Y55.702 E14.2498
G1 X244.205 Y56.633 E14.28572
G1 X245.167 Y57.378 E14.30861
G1 X246.201 Y58.66 E14.33959
G1 X247.139 Y60.542 E14.37914
G1 X247.352 Y62.004 E14.40694
G1 X247.4 Y143.281 E15.9358
G1 X246.998 Y145.238 E15.97338
G1 X246.067 Y146.905 E16.0093
G1 X245.322 Y147.867 E16.03219
G1 X244.04 Y148.901 E16.06317
G1 X242.158 Y149.839 E16.10272
G1 X240.696 Y150.052 E16.13051
G1 X59.328 Y150.1 E19.54215
G1 X57.424 Y149.682 E19.57882
G1 X55.743 Y148.746 E19.61501
G1 X54.837 Y148.036 E19.63666
G1 X53.808 Y146.755 E19.66757
G1 X52.861 Y144.842 E19.70772
G1 X52.648 Y143.396 E19.73521
G1 X52.6 Y62.119 E21.26408
G1 X53.002 Y60.162 E21.30166
G1 X53.933 Y58.495 E21.33758
G1 X54.678 Y57.533 E21.36046
G0 F3600 X54.966 Y57.814
G1 F1800 X56.177 Y56.838 E21.38972
G1 X57.962 Y55.948 E21.42724
G1 X59.362 Y55.744 E21.45385
G1 X240.539 Y55.7 E24.86189
G1 X242.397 Y56.082 E24.89757
G1 X243.96 Y56.949 E24.9312
G1 X244.886 Y57.666 E24.95323
G1 X245.862 Y58.877 E24.98248
G1 X246.752 Y60.662 E25.02
G1 X246.956 Y62.062 E25.04661
G1 X247 Y143.239 E26.5736
G1 X246.618 Y145.097 E26.60928
G1 X245.751 Y146.66 E26.6429
G1 X245.034 Y147.586 E26.66493
G1 X243.823 Y148.562 E26.69419
G1 X242.038 Y149.452 E26.73171
G1 X240.638 Y149.656 E26.75832
G1 X59.373 Y149.7 E30.16802
G1 X57.567 Y149.303 E30.2028
G1 X55.99 Y148.431 E30.2367
G1 X55.121 Y147.75 E30.25746
G1 X54.144 Y146.534 E30.28681
G1 X53.248 Y144.724 E30.3248
G1 X53.044 Y143.338 E30.35115
G1 X53 Y62.161 E31.87813
G1 X53.382 Y60.303 E31.91381
G1 X54.249 Y58.74 E31.94744
G1 X54.966 Y57.814 E31.96946
G0 F3600 X55.251 Y58.098
G1 F1800 X56.397 Y57.175 E31.99714
G1 X58.082 Y56.335 E32.03256
G1 X59.42 Y56.14 E32.05799
G1 X240.497 Y56.1 E35.46415
G1 X242.257 Y56.462 E35.49795
G1 X243.766 Y57.299 E35.53041
G1 X244.602 Y57.951 E35.55036
G1 X245.525 Y59.097 E35.57803
G1 X246.365 Y60.782 E35.61345
G1 X246.56 Y62.12 E35.63888
G1 X246.6 Y143.197 E37.16399
G1 X246.238 Y144.957 E37.19779
G1 X245.401 Y146.466 E37.23025
G1 X244.749 Y147.302 E37.25019
G1 X243.603 Y148.225 E37.27787
G1 X241.918 Y149.065 E37.31329
G1 X240.58 Y149.26 E37.33872
G1 X59.418 Y149.3 E40.74648
G1 X57.709 Y148.924 E40.77939
G1 X56.237 Y148.116 E40.81098
G1 X55.405 Y147.464 E40.83086
G1 X54.483 Y146.317 E40.85855
G1 X53.635 Y144.603 E40.89452
G1 X53.44 Y143.28 E40.91967
G1 X53.4 Y62.203 E42.44478
G1 X53.762 Y60.443 E42.47858
G1 X54.599 Y58.934 E42.51104
G1 X55.251 Y58.098 E42.53098
G0 F3600 X55.535 Y58.383
G1 F1800 X56.617 Y57.512 E42.55711
G1 X58.202 Y56.722 E42.59042
G1 X59.478 Y56.536 E42.61468
G1 X240.455 Y56.5 E46.01895
G1 X242.117 Y56.842 E46.05087
G1 X243.572 Y57.649 E46.08217
G1 X244.317 Y58.235 E46.1
G1 X245.188 Y59.317 E46.12613
G1 X245.978 Y60.902 E46.15944
G1 X246.164 Y62.178 E46.1837
G1 X246.2 Y143.155 E47.70692
G1 X245.858 Y144.817 E47.73884
G1 X245.051 Y146.272 E47.77013
G1 X244.465 Y147.017 E47.78796
G1 X243.383 Y147.888 E47.81409
G1 X241.798 Y148.678 E47.8474
G1 X240.522 Y148.864 E47.87166
G1 X59.463 Y148.9 E51.27748
G1 X57.849 Y148.545 E51.30857
G1 X56.484 Y147.801 E51.33781
G1 X55.686 Y147.176 E51.35688
G1 X54.821 Y146.099 E51.38286
G1 X54.022 Y144.485 E51.41674
G1 X53.836 Y143.222 E51.44075
G1 X53.8 Y62.245 E52.96397
G1 X54.142 Y60.583 E52.99589
G1 X54.949 Y59.128 E53.02719
G1 X55.535 Y58.383 E53.04502
G0 F3600 X55.82 Y58.668
G1 F1800 X56.835 Y57.851 E53.06953
G1 X58.323 Y57.109 E53.1008
G1 X59.536 Y56.932 E53.12386
G1 X240.413 Y56.9 E56.52626
G1 X241.977 Y57.222 E56.5563
G1 X243.378 Y57.999 E56.58643
G1 X244.032 Y58.52 E56.60216
G1 X244.849 Y59.535 E56.62667
G1 X245.591 Y61.023 E56.65795
G1 X245.768 Y62.236 E56.68101
G1 X245.8 Y143.113 E58.20235
G1 X245.478 Y144.677 E58.23239
G1 X244.701 Y146.078 E58.26252
G1 X244.18 Y146.732 E58.27825
G1 X243.165 Y147.549 E58.30276
G1 X241.677 Y148.291 E58.33404
G1 X240.464 Y148.468 E58.35709
G1 X59.508 Y148.5 E61.76098
G1 X57.989 Y148.166 E61.79023
G1 X56.731 Y147.486 E61.81713
G1 X55.97 Y146.89 E61.83532
G1 X55.157 Y145.878 E61.85973
G1 X54.409 Y144.367 E61.89145
G1 X54.232 Y143.164 E61.91432
G1 X54.2 Y62.287 E63.43566
G1 X54.522 Y60.723 E63.4657
G1 X55.299 Y59.322 E63.49583
G1 X55.82 Y58.668 E63.51156
G0 F3600 X56.104 Y58.954
G1 F1800 X57.055 Y58.188 E63.53453
G1 X58.443 Y57.496 E63.56371
G1 X59.594 Y57.328 E63.58559
G1 X240.371 Y57.3 E66.9861
G1 X241.838 Y57.602 E67.01428
G1 X243.129 Y58.312 E67.04199
G1 X243.746 Y58.804 E67.05684
G1 X244.512 Y59.755 E67.07981
G1 X245.204 Y61.143 E67.10898
G1 X245.372 Y62.294 E67.13086
G1 X245.4 Y143.071 E68.65032
G1 X245.098 Y144.538 E68.6785
G1 X244.388 Y145.829 E68.70621
G1 X243.896 Y146.446 E68.72105
G1 X242.945 Y147.212 E68.74402
G1 X241.557 Y147.904 E68.7732
G1 X240.406 Y148.072 E68.79508
G1 X59.553 Y148.1 E72.19702
G1 X58.13 Y147.787 E72.22443
G1 X56.978 Y147.171 E72.249
G1 X56.254 Y146.604 E72.2663
G1 X55.493 Y145.657 E72.28916
G1 X54.796 Y144.249 E72.31871
G1 X54.628 Y143.106 E72.34044
G1 X54.6 Y62.329 E73.8599
G1 X54.902 Y60.862 E73.88807
G1 X55.612 Y59.571 E73.91579
G1 X56.104 Y58.954 E73.93063
G0 F3600 X56.39 Y59.237
G1 F1800 X57.271 Y58.527 E73.95192
G1 X58.563 Y57.883 E73.97907
G1 X59.652 Y57.724 E73.99977
G1 X240.329 Y57.7 E77.39841
G1 X241.7 Y57.982 E77.42474
G1 X242.88 Y58.625 E77.45002
G1 X243.463 Y59.09 E77.46404
G1 X244.173 Y59.971 E77.48533
G1 X244.817 Y61.263 E77.51248
G1 X244.976 Y62.352 E77.53318
G1 X245 Y143.029 E79.05076
G1 X244.718 Y144.4 E79.07709
G1 X244.075 Y145.58 E79.10237
G1 X243.61 Y146.163 E79.1164
G1 X242.729 Y146.873 E79.13768
G1 X241.437 Y147.517 E79.16484
G1 X240.348 Y147.676 E79.18554
G1 X59.598 Y147.7 E82.58555
G1 X58.27 Y147.408 E82.61112
G1 X57.167 Y146.818 E82.63465
G1 X56.539 Y146.319 E82.64974
G1 X55.829 Y145.436 E82.67106
G1 X55.183 Y144.131 E82.69845
G1 X55.024 Y143.048 E82.71904
G1 X55 Y62.371 E84.23662
G1 X55.282 Y61 E84.26294
G1 X55.925 Y59.82 E84.28822
G1 X56.39 Y59.237 E84.30225
G0 F3600 X56.674 Y59.522
G1 F1800 X57.491 Y58.864 E84.32198
G1 X58.683 Y58.27 E84.34704
G1 X59.71 Y58.12 E84.36656
G1 X240.287 Y58.1 E87.76331
G1 X241.562 Y58.362 E87.7878
G1 X242.631 Y58.938 E87.81064
G1 X243.178 Y59.374 E87.8238
G1 X243.836 Y60.191 E87.84353
G1 X244.43 Y61.383 E87.86858
G1 X244.58 Y62.41 E87.88811
G1 X244.6 Y142.987 E89.4038
G1 X244.338 Y144.262 E89.42829
G1 X243.762 Y145.331 E89.45113
G1 X243.326 Y145.878 E89.46429
G1 X242.509 Y146.536 E89.48402
G1 X241.317 Y147.13 E89.50907
G1 X240.29 Y147.28 E89.5286
G1 X59.643 Y147.3 E92.92667
G1 X58.41 Y147.029 E92.95041
G1 X57.356 Y146.465 E92.9729
G1 X56.825 Y146.036 E92.98574
G1 X56.165 Y145.215 E93.00556
G1 X55.57 Y144.013 E93.03078
G1 X55.42 Y142.99 E93.05023
G1 X55.4 Y62.413 E94.56593
G1 X55.662 Y61.138 E94.59042
G1 X56.238 Y60.069 E94.61326
G1 X56.674 Y59.522 E94.62642
G0 F3600 X56.956 Y59.809
G1 F1800 X57.711 Y59.201 E94.64465
G1 X58.803 Y58.657 E94.6676
G1 X59.768 Y58.516 E94.68594
G1 X240.246 Y58.5 E98.08084
G1 X241.424 Y58.742 E98.10346
G1 X242.441 Y59.29 E98.12519
G1 X242.891 Y59.656 E98.1361
G1 X243.499 Y60.411 E98.15433
G1 X244.043 Y61.503 E98.17728
G1 X244.184 Y62.468 E98.19563
G1 X244.2 Y142.946 E99.70946
G1 X243.958 Y144.124 E99.73209
G1 X243.41 Y145.141 E99.75382
G1 X243.044 Y145.591 E99.76473
G1 X242.289 Y146.199 E99.78296
G1 X241.197 Y146.743 E99.80591
G1 X240.232 Y146.884 E99.82426
G1 X59.688 Y146.9 E103.22039
G1 X58.55 Y146.65 E103.24231
G1 X57.578 Y146.13 E103.26304
G1 X57.111 Y145.752 E103.27434
G1 X56.501 Y144.994 E103.29265
G1 X55.957 Y143.895 E103.31571
G1 X55.816 Y142.932 E103.33402
G1 X55.8 Y62.454 E104.84786
G1 X56.042 Y61.276 E104.87048
G1 X56.59 Y60.259 E104.89221
G1 X56.956 Y59.809 E104.90312
G0 F3600 X57.207 Y60.121
G1 F1800 X57.931 Y59.538 E104.9206
G1 X58.923 Y59.044 E104.94145
G1 X59.826 Y58.912 E104.95862
G1 X240.205 Y58.9 E108.35165
G1 X241.286 Y59.122 E108.3724
G1 X242.194 Y59.605 E108.39175
G1 X242.579 Y59.907 E108.40095
G1 X243.162 Y60.631 E108.41844
G1 X243.656 Y61.623 E108.43929
G1 X243.788 Y62.526 E108.45645
G1 X243.8 Y142.905 E109.96843
G1 X243.578 Y143.986 E109.98918
G1 X243.095 Y144.894 E110.00853
G1 X242.793 Y145.279 E110.01774
G1 X242.069 Y145.862 E110.03522
G1 X241.077 Y146.356 E110.05607
G1 X240.174 Y146.488 E110.07323
G1 X59.733 Y146.5 E113.46743
G1 X58.69 Y146.271 E113.48752
G1 X57.767 Y145.777 E113.50721
G1 X57.398 Y145.47 E113.51624
G1 X56.839 Y144.775 E113.53301
G1 X56.344 Y143.776 E113.55399
G1 X56.212 Y142.874 E113.57113
G1 X56.2 Y62.495 E115.08311
G1 X56.422 Y61.414 E115.10387
G1 X56.905 Y60.506 E115.12321
G1 X57.207 Y60.121 E115.13242
G0 F3600 X57.458 Y60.433
G1 F1800 X58.151 Y59.875 E115.14915
G1 X59.043 Y59.431 E115.1679
G1 X59.884 Y59.308 E115.18388
G1 X240.164 Y59.3 E118.57505
G1 X241.15 Y59.502 E118.59398
G1 X241.955 Y59.926 E118.6111
G1 X242.267 Y60.158 E118.61841
G1 X242.825 Y60.851 E118.63515
G1 X243.269 Y61.743 E118.65389
G1 X243.392 Y62.584 E118.66988
G1 X243.4 Y142.864 E120.17999
G1 X243.198 Y143.85 E120.19892
G1 X242.774 Y144.655 E120.21604
G1 X242.542 Y144.967 E120.22335
G1 X241.849 Y145.525 E120.24009
G1 X240.957 Y145.969 E120.25883
G1 X240.116 Y146.092 E120.27482
G1 X59.778 Y146.1 E123.66708
G1 X58.83 Y145.892 E123.68533
G1 X57.956 Y145.424 E123.70398
G1 X57.71 Y145.219 E123.71
G1 X57.177 Y144.556 E123.72601
G1 X56.731 Y143.657 E123.74488
G1 X56.608 Y142.816 E123.76087
G1 X56.6 Y62.536 E125.27098
G1 X56.802 Y61.55 E125.28992
G1 X57.226 Y60.745 E125.30703
G1 X57.458 Y60.433 E125.31434
G0 F3600 X57.749 Y60.712
G1 F1800 X58.367 Y60.214 E125.32927
G1 X59.163 Y59.818 E125.346
G1 X59.942 Y59.704 E125.36081
G1 X240.123 Y59.7 E128.75011
G1 X241.013 Y59.882 E128.7672
G1 X241.768 Y60.28 E128.78325
G1 X241.988 Y60.449 E128.78847
G1 X242.486 Y61.067 E128.8034
G1 X242.882 Y61.863 E128.82013
G1 X242.996 Y62.642 E128.83494
G1 X243 Y142.823 E130.34318
G1 X242.818 Y143.713 E130.36027
G1 X242.42 Y144.468 E130.37633
G1 X242.251 Y144.688 E130.38155
G1 X241.633 Y145.186 E130.39647
G1 X240.837 Y145.582 E130.4132
G1 X240.058 Y145.696 E130.42801
G1 X59.823 Y145.7 E133.81833
G1 X58.97 Y145.513 E133.83476
G1 X58.145 Y145.071 E133.85236
G1 X58.022 Y144.968 E133.85538
G1 X57.515 Y144.337 E133.8706
G1 X57.118 Y143.537 E133.8874
G1 X57.004 Y142.758 E133.90221
G1 X57 Y62.577 E135.41046
G1 X57.182 Y61.687 E135.42755
G1 X57.58 Y60.932 E135.44361
G1 X57.749 Y60.712 E135.44882
G0 F3600 X58.037 Y60.993
G1 F1800 X58.583 Y60.553 E135.46201
G1 X59.283 Y60.205 E135.47672
G1 X60 Y60.1 E135.49035
G1 X240.082 Y60.1 E138.87779
G1 X240.878 Y60.263 E138.89308
G1 X241.582 Y60.634 E138.90805
G1 X241.707 Y60.737 E138.91109
G1 X242.147 Y61.283 E138.92428
G1 X242.495 Y61.983 E138.93899
G1 X242.6 Y62.7 E138.95262
G1 X242.6 Y142.782 E140.45901
G1 X242.437 Y143.578 E140.47429
G1 X242.066 Y144.282 E140.48926
G1 X241.963 Y144.407 E140.4923
G1 X241.417 Y144.847 E140.5055
G1 X240.717 Y145.195 E140.5202
G1 X240 Y145.3 E140.53383
G1 X59.868 Y145.3 E143.92221
G1 X59.11 Y145.134 E143.93681
G1 X58.334 Y144.718 E143.95337
G1 X57.854 Y144.12 E143.9678
G1 X57.505 Y143.417 E143.98256
G1 X57.4 Y142.7 E143.99619
G1 X57.4 Y62.618 E145.50258
G1 X57.563 Y61.822 E145.51786
G1 X57.934 Y61.118 E145.53283
G1 X58.037 Y60.993 E145.53588
G0 F3600 X58.288 Y61.304
G1 F1800 X58.799 Y60.892 E145.54823
G1 X59.405 Y60.591 E145.56095
G1 X60 Y60.5 E145.57228
G1 X240.041 Y60.5 E148.95895
G1 X240.743 Y60.644 E148.97243
G1 X241.396 Y60.988 E148.98631
G1 X241.808 Y61.499 E148.99866
G1 X242.109 Y62.105 E149.01139
G1 X242.2 Y62.7 E149.02271
G1 X242.2 Y142.741 E150.52832
G1 X242.056 Y143.443 E150.5418
G1 X241.712 Y144.096 E150.55569
G1 X241.201 Y144.508 E150.56804
G1 X240.595 Y144.809 E150.58076
G1 X240 Y144.9 E150.59209
G1 X59.913 Y144.9 E153.97962
G1 X59.247 Y144.754 E153.99245
G1 X58.597 Y144.405 E154.00633
G1 X58.192 Y143.901 E154.01849
G1 X57.891 Y143.295 E154.03122
G1 X57.8 Y142.7 E154.04254
G1 X57.8 Y62.659 E155.54815
G1 X57.944 Y61.957 E155.56163
G1 X58.288 Y61.304 E155.57552
G0 F3600 X58.605 Y61.562
G1 F1800 X58.977 Y61.25 E155.58465
G1 X59.526 Y60.977 E155.59618
G1 X60 Y60.9 E155.60522
G1 X240 Y60.9 E158.99112
G1 X240.606 Y61.024 E159.00275
G1 X241.138 Y61.305 E159.01407
G1 X241.45 Y61.677 E159.0232
G1 X241.723 Y62.226 E159.03474
G1 X241.8 Y62.7 E159.04377
G1 X241.8 Y142.7 E160.54861
G1 X241.676 Y143.306 E160.56025
G1 X241.395 Y143.838 E160.57157
G1 X241.023 Y144.15 E160.5807
G1 X240.474 Y144.423 E160.59223
G1 X240 Y144.5 E160.60127
G1 X59.958 Y144.5 E163.98796
G1 X59.384 Y144.374 E163.99901
G1 X58.859 Y144.092 E164.01022
G1 X58.55 Y143.723 E164.01927
G1 X58.277 Y143.174 E164.03081
G1 X58.2 Y142.7 E164.03984
G1 X58.2 Y62.7 E165.54468
G1 X58.324 Y62.094 E165.55632
G1 X58.605 Y61.562 E165.56764
G0 F3600 X58.923 Y61.817
G1 F1800 X59.155 Y61.608 E165.57351
G1 X59.649 Y61.362 E165.58389
G1 X60 Y61.3 E165.5906
G1 X240 Y61.3 E168.9765
G1 X240.419 Y61.378 E168.98451
G1 X240.883 Y61.623 E168.99438
G1 X241.092 Y61.855 E169.00026
G1 X241.338 Y62.349 E169.01064
G1 X241.4 Y62.7 E169.01734
G1 X241.4 Y142.7 E170.52219
G1 X241.322 Y143.119 E170.5302
G1 X241.077 Y143.583 E170.54007
G1 X240.845 Y143.792 E170.54595
G1 X240.351 Y144.038 E170.55633
G1 X240 Y144.1 E170.56303
G1 X59.958 Y144.1 E173.94972
G1 X59.477 Y143.985 E173.95903
G1 X59.117 Y143.777 E173.96685
G1 X58.908 Y143.545 E173.97272
G1 X58.662 Y143.051 E173.9831
G1 X58.6 Y142.7 E173.98981
G1 X58.6 Y62.7 E175.49465
G1 X58.678 Y62.281 E175.50267
G1 X58.923 Y61.817 E175.51254
G0 F3600 X59.207 Y62.099
G1 F1800 X59.07 Y62.362 E175.51812
G1 X59 Y62.7 E175.52461
G1 X59 Y142.7 E177.02945
G1 X59.054 Y142.973 E177.03469
G1 X59.26 Y143.355 E177.04285
G1 X59.399 Y143.493 E177.04654
G1 X59.662 Y143.63 E177.05212
G1 X60 Y143.7 E177.05861
G1 X240 Y143.7 E180.44451
G1 X240.273 Y143.646 E180.44974
G1 X240.655 Y143.44 E180.45791
G1 X240.793 Y143.301 E180.46159
G1 X240.93 Y143.038 E180.46717
G1 X241 Y142.7 E180.47366
G1 X241 Y62.7 E181.97851
G1 X240.946 Y62.427 E181.98374
G1 X240.74 Y62.045 E181.99191
G1 X240.601 Y61.907 E181.99559
G1 X240.338 Y61.77 E182.00117
G1 X240 Y61.7 E182.00766
G1 X60 Y61.7 E185.39356
G1 X59.727 Y61.754 E185.3988
G1 X59.345 Y61.96 E185.40696
G1 X59.207 Y62.099 E185.41064
G0 F3600 X59.839 Y62.581
G1 F1800 X60 Y62.5 E185.41403
G1 X240 Y62.5 E188.79993
