;FLAVOR:Marlin
;TIME:4442
;Filament used: 1.00183m
;Layer height: 0.1
;MINX:118.2
;MINY:63.887
;MINZ:0.3
;MAXX:181.8
;MAXY:159.487
;MAXZ:1.5
;TARGET_MACHINE.NAME:Unknown
;Generated with Cura_SteamEngine 5.12.0
M104 S200
M105
M109 S200
G28 ;Home
G1 Z15.0 F6000 ;Move the platform down 15mm
;Prime the extruder
G92 E0
G1 F200 E3
G92 E0
M82 ;absolute extrusion mode
G92 E0
G92 E0
G1 F1500 E-6.5
;LAYER_COUNT:13
;LAYER:0
M107
G0 F3600 X119.617 Y67.237 Z0.3
;TYPE:SKIRT
G1 F1500 E0
G1 F1800 X120.39 Y66.239 E0.02375
G1 X121.743 Y65.147 E0.05645
G1 X123.722 Y64.161 E0.09804
G1 X125.246 Y63.939 E0.12701
G1 X174.622 Y63.887 E1.0558
G1 X176.679 Y64.309 E1.0953
G1 X178.45 Y65.304 E1.13351
G1 X179.448 Y66.077 E1.15726
G1 X180.54 Y67.43 E1.18996
G1 X181.526 Y69.409 E1.23155
G1 X181.748 Y70.933 E1.26052
G1 X181.8 Y152.309 E2.79125
G1 X181.378 Y154.366 E2.83075
G1 X180.383 Y156.137 E2.86896
G1 X179.61 Y157.135 E2.89271
G1 X178.257 Y158.227 E2.92541
G1 X176.278 Y159.213 E2.96701
G1 X174.754 Y159.435 E2.99598
G1 X125.283 Y159.487 E3.92655
G1 X123.282 Y159.048 E3.96509
G1 X121.496 Y158.048 E4.00359
G1 X120.553 Y157.309 E4.02613
G1 X119.472 Y155.963 E4.0586
G1 X118.474 Y153.947 E4.10092
G1 X118.252 Y152.441 E4.12955
G1 X118.2 Y71.065 E5.66028
G1 X118.622 Y69.008 E5.69978
G1 X119.617 Y67.237 E5.73799
G0 F3600 X119.933 Y67.482
G1 F1800 X120.678 Y66.52 E5.76088
G1 X121.96 Y65.486 E5.79186
G1 X123.842 Y64.548 E5.83141
G1 X125.304 Y64.335 E5.8592
G1 X174.581 Y64.287 E6.78613
G1 X176.538 Y64.689 E6.82371
G1 X178.205 Y65.62 E6.85963
G1 X179.167 Y66.365 E6.88252
G1 X180.201 Y67.647 E6.9135
G1 X181.139 Y69.529 E6.95305
G1 X181.352 Y70.991 E6.98084
G1 X181.4 Y152.268 E8.50971
G1 X180.998 Y154.225 E8.54729
G1 X180.067 Y155.892 E8.58321
G1 X179.322 Y156.854 E8.6061
G1 X178.04 Y157.888 E8.63708
G1 X176.158 Y158.826 E8.67663
G1 X174.696 Y159.039 E8.70442
G1 X125.328 Y159.087 E9.63306
G1 X123.424 Y158.669 E9.66973
G1 X121.743 Y157.733 E9.70592
G1 X120.837 Y157.023 E9.72757
G1 X119.808 Y155.742 E9.75848
G1 X118.861 Y153.829 E9.79864
G1 X118.648 Y152.383 E9.82613
G1 X118.6 Y71.106 E11.35499
G1 X119.002 Y69.149 E11.39258
G1 X119.933 Y67.482 E11.42849
G0 F3600 X120.249 Y67.727
G1 F1800 X120.966 Y66.801 E11.45052
G1 X122.177 Y65.825 E11.47978
G1 X123.962 Y64.935 E11.5173
G1 X125.362 Y64.731 E11.54391
G1 X174.539 Y64.687 E12.46896
G1 X176.397 Y65.069 E12.50464
G1 X177.96 Y65.936 E12.53826
G1 X178.886 Y66.653 E12.56029
G1 X179.862 Y67.864 E12.58955
G1 X180.752 Y69.649 E12.62707
G1 X180.956 Y71.049 E12.65368
G1 X181 Y152.226 E14.18066
G1 X180.618 Y154.084 E14.21634
G1 X179.751 Y155.647 E14.24997
G1 X179.034 Y156.573 E14.27199
G1 X177.823 Y157.549 E14.30125
G1 X176.038 Y158.439 E14.33877
G1 X174.638 Y158.643 E14.36538
G1 X125.373 Y158.687 E15.29209
G1 X123.567 Y158.29 E15.32687
G1 X121.99 Y157.418 E15.36077
G1 X121.121 Y156.737 E15.38153
G1 X120.144 Y155.521 E15.41088
G1 X119.248 Y153.711 E15.44887
G1 X119.044 Y152.325 E15.47522
G1 X119 Y71.148 E17.0022
G1 X119.382 Y69.29 E17.03788
G1 X120.249 Y67.727 E17.07151
G0 F3600 X120.599 Y67.921
G1 F1800 X121.251 Y67.085 E17.09145
G1 X122.397 Y66.162 E17.11913
G1 X124.082 Y65.322 E17.15454
G1 X125.42 Y65.127 E17.17998
G1 X174.497 Y65.087 E18.10314
G1 X176.257 Y65.449 E18.13694
G1 X177.766 Y66.286 E18.1694
G1 X178.602 Y66.938 E18.18935
G1 X179.525 Y68.084 E18.21703
G1 X180.365 Y69.769 E18.25244
G1 X180.56 Y71.107 E18.27788
G1 X180.6 Y152.184 E19.80298
G1 X180.238 Y153.944 E19.83678
G1 X179.401 Y155.453 E19.86924
G1 X178.749 Y156.289 E19.88918
G1 X177.603 Y157.212 E19.91686
G1 X175.918 Y158.052 E19.95228
G1 X174.58 Y158.247 E19.97771
G1 X125.418 Y158.287 E20.90248
G1 X123.709 Y157.911 E20.93539
G1 X122.237 Y157.103 E20.96698
G1 X121.405 Y156.451 E20.98686
G1 X120.483 Y155.304 E21.01454
G1 X119.635 Y153.59 E21.05051
G1 X119.44 Y152.267 E21.07567
G1 X119.4 Y71.19 E22.60077
G1 X119.762 Y69.43 E22.63457
G1 X120.599 Y67.921 E22.66703
G0 F3600 X120.949 Y68.115
G1 F1800 X121.535 Y67.37 E22.68486
G1 X122.617 Y66.499 E22.71099
G1 X124.202 Y65.709 E22.7443
G1 X125.478 Y65.523 E22.76856
G1 X174.455 Y65.487 E23.68984
G1 X176.117 Y65.829 E23.72176
G1 X177.572 Y66.636 E23.75306
G1 X178.317 Y67.222 E23.77089
G1 X179.188 Y68.304 E23.79702
G1 X179.978 Y69.889 E23.83033
G1 X180.164 Y71.165 E23.85459
G1 X180.2 Y152.142 E25.37781
G1 X179.858 Y153.804 E25.40973
G1 X179.051 Y155.259 E25.44102
G1 X178.465 Y156.004 E25.45885
G1 X177.383 Y156.875 E25.48498
G1 X175.798 Y157.665 E25.51829
G1 X174.522 Y157.851 E25.54255
G1 X125.463 Y157.887 E26.46538
G1 X123.849 Y157.532 E26.49646
G1 X122.484 Y156.788 E26.52571
G1 X121.686 Y156.163 E26.54477
G1 X120.821 Y155.086 E26.57076
G1 X120.022 Y153.472 E26.60463
G1 X119.836 Y152.209 E26.62865
G1 X119.8 Y71.232 E28.15187
G1 X120.142 Y69.57 E28.18379
G1 X120.949 Y68.115 E28.21509
G0 F3600 X121.299 Y68.309
G1 F1800 X121.82 Y67.655 E28.23082
G1 X122.835 Y66.838 E28.25532
G1 X124.323 Y66.096 E28.2866
G1 X125.536 Y65.919 E28.30966
G1 X174.413 Y65.887 E29.22906
G1 X175.977 Y66.209 E29.2591
G1 X177.378 Y66.986 E29.28924
G1 X178.032 Y67.507 E29.30496
G1 X178.849 Y68.522 E29.32947
G1 X179.591 Y70.01 E29.36075
G1 X179.768 Y71.223 E29.38381
G1 X179.8 Y152.1 E30.90515
G1 X179.478 Y153.664 E30.93519
G1 X178.701 Y155.065 E30.96532
G1 X178.18 Y155.719 E30.98105
G1 X177.165 Y156.536 E31.00556
G1 X175.677 Y157.278 E31.03684
G1 X174.464 Y157.455 E31.0599
G1 X125.508 Y157.487 E31.98079
G1 X123.989 Y157.153 E32.01004
G1 X122.731 Y156.473 E32.03694
G1 X121.97 Y155.877 E32.05513
G1 X121.157 Y154.865 E32.07954
G1 X120.409 Y153.354 E32.11126
G1 X120.232 Y152.151 E32.13413
G1 X120.2 Y71.274 E33.65547
G1 X120.522 Y69.71 E33.68551
G1 X121.299 Y68.309 E33.71564
G0 F3600 X121.612 Y68.558
G1 F1800 X122.104 Y67.941 E33.73049
G1 X123.055 Y67.175 E33.75346
G1 X124.443 Y66.483 E33.78263
G1 X125.594 Y66.315 E33.80451
G1 X174.371 Y66.287 E34.72204
G1 X175.838 Y66.589 E34.75021
G1 X177.129 Y67.299 E34.77792
G1 X177.746 Y67.791 E34.79277
G1 X178.512 Y68.742 E34.81574
G1 X179.204 Y70.13 E34.84491
G1 X179.372 Y71.281 E34.86679
G1 X179.4 Y152.058 E36.38625
G1 X179.098 Y153.525 E36.41443
G1 X178.388 Y154.816 E36.44214
G1 X177.896 Y155.433 E36.45699
G1 X176.945 Y156.199 E36.47996
G1 X175.557 Y156.891 E36.50913
G1 X174.406 Y157.059 E36.53101
G1 X125.553 Y157.087 E37.44996
G1 X124.13 Y156.774 E37.47737
G1 X122.978 Y156.158 E37.50194
G1 X122.254 Y155.591 E37.51924
G1 X121.493 Y154.644 E37.54209
G1 X120.796 Y153.236 E37.57165
G1 X120.628 Y152.093 E37.59338
G1 X120.6 Y71.316 E39.11284
G1 X120.902 Y69.849 E39.14101
G1 X121.612 Y68.558 E39.16873
G0 F3600 X121.925 Y68.807
G1 F1800 X122.39 Y68.224 E39.18276
G1 X123.271 Y67.514 E39.20404
G1 X124.563 Y66.87 E39.23119
G1 X125.652 Y66.711 E39.2519
G1 X174.329 Y66.687 E40.16754
G1 X175.7 Y66.969 E40.19387
G1 X176.88 Y67.612 E40.21914
G1 X177.463 Y68.077 E40.23317
G1 X178.173 Y68.958 E40.25446
G1 X178.817 Y70.25 E40.28161
G1 X178.976 Y71.339 E40.30231
G1 X179 Y152.016 E41.81989
G1 X178.718 Y153.387 E41.84622
G1 X178.075 Y154.567 E41.8715
G1 X177.61 Y155.15 E41.88553
G1 X176.729 Y155.86 E41.90681
G1 X175.437 Y156.504 E41.93397
G1 X174.348 Y156.663 E41.95467
G1 X125.598 Y156.687 E42.87168
G1 X124.27 Y156.395 E42.89726
G1 X123.167 Y155.805 E42.92079
G1 X122.539 Y155.306 E42.93588
G1 X121.829 Y154.423 E42.95719
G1 X121.183 Y153.118 E42.98458
G1 X121.024 Y152.035 E43.00517
G1 X121 Y71.358 E44.52275
G1 X121.282 Y69.987 E44.54908
G1 X121.925 Y68.807 E44.57436
G0 F3600 X122.238 Y69.056
G1 F1800 X122.674 Y68.509 E44.58752
G1 X123.491 Y67.851 E44.60725
G1 X124.683 Y67.257 E44.6323
G1 X125.71 Y67.107 E44.65182
G1 X174.287 Y67.087 E45.56559
G1 X175.562 Y67.349 E45.59007
G1 X176.631 Y67.925 E45.61291
G1 X177.178 Y68.361 E45.62607
G1 X177.836 Y69.178 E45.6458
G1 X178.43 Y70.37 E45.67085
G1 X178.58 Y71.397 E45.69038
G1 X178.6 Y151.974 E47.20608
G1 X178.338 Y153.249 E47.23056
G1 X177.762 Y154.318 E47.2534
G1 X177.326 Y154.865 E47.26656
G1 X176.509 Y155.523 E47.28629
G1 X175.317 Y156.117 E47.31135
G1 X174.29 Y156.267 E47.33087
G1 X125.643 Y156.287 E48.24595
G1 X124.41 Y156.016 E48.26969
G1 X123.356 Y155.452 E48.29218
G1 X122.825 Y155.023 E48.30502
G1 X122.165 Y154.202 E48.32483
G1 X121.57 Y153 E48.35006
G1 X121.42 Y151.977 E48.36951
G1 X121.4 Y71.4 E49.88521
G1 X121.662 Y70.125 E49.9097
G1 X122.238 Y69.056 E49.93254
G0 F3600 X122.59 Y69.246
G1 F1800 X122.956 Y68.796 E49.94345
G1 X123.711 Y68.188 E49.96168
G1 X124.803 Y67.644 E49.98463
G1 X125.768 Y67.503 E50.00298
G1 X174.246 Y67.487 E50.91487
G1 X175.424 Y67.729 E50.9375
G1 X176.441 Y68.277 E50.95923
G1 X176.891 Y68.643 E50.97014
G1 X177.499 Y69.398 E50.98837
G1 X178.043 Y70.49 E51.01132
G1 X178.184 Y71.455 E51.02967
G1 X178.2 Y151.933 E52.5435
G1 X177.958 Y153.111 E52.56612
G1 X177.41 Y154.128 E52.58785
G1 X177.044 Y154.578 E52.59877
G1 X176.289 Y155.186 E52.617
G1 X175.197 Y155.73 E52.63995
G1 X174.232 Y155.871 E52.65829
G1 X125.688 Y155.887 E53.57143
G1 X124.55 Y155.637 E53.59335
G1 X123.578 Y155.117 E53.61409
G1 X123.111 Y154.739 E53.62539
G1 X122.501 Y153.981 E53.64369
G1 X121.957 Y152.882 E53.66676
G1 X121.816 Y151.919 E53.68506
G1 X121.8 Y71.441 E55.1989
G1 X122.042 Y70.263 E55.22152
G1 X122.59 Y69.246 E55.24325
G0 F3600 X122.905 Y69.493
G1 F1800 X123.207 Y69.108 E55.25246
G1 X123.931 Y68.525 E55.26994
G1 X124.923 Y68.031 E55.29079
G1 X125.826 Y67.899 E55.30796
G1 X174.205 Y67.887 E56.21799
G1 X175.286 Y68.109 E56.23875
G1 X176.194 Y68.592 E56.2581
G1 X176.579 Y68.894 E56.2673
G1 X177.162 Y69.618 E56.28479
G1 X177.656 Y70.61 E56.30563
G1 X177.788 Y71.513 E56.3228
G1 X177.8 Y151.892 E57.83477
G1 X177.578 Y152.973 E57.85553
G1 X177.095 Y153.881 E57.87488
G1 X176.793 Y154.266 E57.88408
G1 X176.069 Y154.849 E57.90157
G1 X175.077 Y155.343 E57.92241
G1 X174.174 Y155.475 E57.93958
G1 X125.733 Y155.487 E58.85078
G1 X124.69 Y155.258 E58.87087
G1 X123.767 Y154.764 E58.89056
G1 X123.398 Y154.457 E58.89959
G1 X122.839 Y153.762 E58.91637
G1 X122.344 Y152.763 E58.93734
G1 X122.212 Y151.861 E58.95449
G1 X122.2 Y71.482 E60.46646
G1 X122.422 Y70.401 E60.48722
G1 X122.905 Y69.493 E60.50656
G0 F3600 X123.226 Y69.732
G1 F1800 X123.458 Y69.42 E60.51388
G1 X124.151 Y68.862 E60.53061
G1 X125.043 Y68.418 E60.54936
G1 X125.884 Y68.295 E60.56535
G1 X174.164 Y68.287 E61.47352
G1 X175.15 Y68.489 E61.49245
G1 X175.955 Y68.913 E61.50957
G1 X176.267 Y69.145 E61.51688
G1 X176.825 Y69.838 E61.53362
G1 X177.269 Y70.73 E61.55236
G1 X177.392 Y71.571 E61.56835
G1 X177.4 Y151.851 E63.07846
G1 X177.198 Y152.837 E63.09739
G1 X176.774 Y153.642 E63.1145
G1 X176.542 Y153.954 E63.12182
G1 X175.849 Y154.512 E63.13855
G1 X174.957 Y154.956 E63.1573
G1 X174.116 Y155.079 E63.17329
G1 X125.778 Y155.087 E64.08255
G1 X124.83 Y154.879 E64.10081
G1 X123.956 Y154.411 E64.11946
G1 X123.71 Y154.206 E64.12548
G1 X123.177 Y153.543 E64.14148
G1 X122.731 Y152.644 E64.16036
G1 X122.608 Y151.803 E64.17635
G1 X122.6 Y71.523 E65.68646
G1 X122.802 Y70.537 E65.70539
G1 X123.226 Y69.732 E65.7225
G0 F3600 X123.58 Y69.919
G1 F1800 X123.749 Y69.699 E65.72772
G1 X124.367 Y69.201 E65.74265
G1 X125.163 Y68.805 E65.75938
G1 X125.942 Y68.691 E65.77419
G1 X174.123 Y68.687 E66.6805
G1 X175.013 Y68.869 E66.69759
G1 X175.768 Y69.267 E66.71364
G1 X175.988 Y69.436 E66.71886
G1 X176.486 Y70.054 E66.73379
G1 X176.882 Y70.85 E66.75051
G1 X176.996 Y71.629 E66.76532
G1 X177 Y151.81 E68.27357
G1 X176.818 Y152.7 E68.29066
G1 X176.42 Y153.455 E68.30671
G1 X176.251 Y153.675 E68.31193
G1 X175.633 Y154.173 E68.32686
G1 X174.837 Y154.569 E68.34358
G1 X174.058 Y154.683 E68.35839
G1 X125.823 Y154.687 E69.26572
G1 X124.97 Y154.5 E69.28215
G1 X124.145 Y154.058 E69.29975
G1 X124.022 Y153.955 E69.30277
G1 X123.515 Y153.324 E69.318
G1 X123.118 Y152.524 E69.3348
G1 X123.004 Y151.745 E69.34961
G1 X123 Y71.564 E70.85786
G1 X123.182 Y70.674 E70.87494
G1 X123.58 Y69.919 E70.891
G0 F3600 X123.934 Y70.105
G1 F1800 X124.037 Y69.98 E70.89404
G1 X124.583 Y69.54 E70.90723
G1 X125.283 Y69.192 E70.92194
G1 X126 Y69.087 E70.93557
G1 X174.082 Y69.087 E71.84002
G1 X174.878 Y69.25 E71.8553
G1 X175.582 Y69.621 E71.87027
G1 X175.707 Y69.724 E71.87332
G1 X176.147 Y70.27 E71.88651
G1 X176.495 Y70.97 E71.90121
G1 X176.6 Y71.687 E71.91485
G1 X176.6 Y151.769 E73.42123
G1 X176.437 Y152.565 E73.43652
G1 X176.066 Y153.269 E73.45149
G1 X175.963 Y153.394 E73.45453
G1 X175.417 Y153.834 E73.46772
G1 X174.717 Y154.182 E73.48243
G1 X174 Y154.287 E73.49606
G1 X125.868 Y154.287 E74.40145
G1 X125.11 Y154.121 E74.41604
G1 X124.334 Y153.705 E74.43261
G1 X123.854 Y153.107 E74.44703
G1 X123.505 Y152.404 E74.46179
G1 X123.4 Y151.687 E74.47543
G1 X123.4 Y71.605 E75.98181
G1 X123.563 Y70.809 E75.9971
G1 X123.934 Y70.105 E76.01207
G0 F3600 X124.288 Y70.291
G1 F1800 X124.799 Y69.879 E76.02441
G1 X125.405 Y69.578 E76.03714
G1 X126 Y69.487 E76.04846
G1 X174.041 Y69.487 E76.95214
G1 X174.743 Y69.631 E76.96562
G1 X175.396 Y69.975 E76.9795
G1 X175.808 Y70.486 E76.99185
G1 X176.109 Y71.092 E77.00458
G1 X176.2 Y71.687 E77.0159
G1 X176.2 Y151.728 E78.52152
G1 X176.056 Y152.43 E78.535
G1 X175.712 Y153.083 E78.54888
G1 X175.201 Y153.495 E78.56123
G1 X174.595 Y153.796 E78.57396
G1 X174 Y153.887 E78.58528
G1 X125.913 Y153.887 E79.48982
G1 X125.247 Y153.741 E79.50265
G1 X124.597 Y153.392 E79.51653
G1 X124.192 Y152.888 E79.52869
G1 X123.891 Y152.282 E79.54142
G1 X123.8 Y151.687 E79.55274
G1 X123.8 Y71.646 E81.05835
G1 X123.944 Y70.944 E81.07183
G1 X124.288 Y70.291 E81.08572
G0 F3600 X124.605 Y70.549
G1 F1800 X124.977 Y70.237 E81.09485
G1 X125.526 Y69.964 E81.10638
G1 X126 Y69.887 E81.11542
G1 X174 Y69.887 E82.01832
G1 X174.606 Y70.011 E82.02996
G1 X175.138 Y70.292 E82.04128
G1 X175.45 Y70.664 E82.05041
G1 X175.723 Y71.213 E82.06194
G1 X175.8 Y71.687 E82.07097
G1 X175.8 Y151.687 E83.57582
G1 X175.676 Y152.293 E83.58745
G1 X175.395 Y152.825 E83.59877
G1 X175.023 Y153.137 E83.60791
G1 X174.474 Y153.41 E83.61944
G1 X174 Y153.487 E83.62847
G1 X125.958 Y153.487 E84.53217
G1 X125.384 Y153.361 E84.54322
G1 X124.859 Y153.079 E84.55443
G1 X124.55 Y152.71 E84.56349
G1 X124.277 Y152.161 E84.57502
G1 X124.2 Y151.687 E84.58405
G1 X124.2 Y71.687 E86.0889
G1 X124.324 Y71.081 E86.10053
G1 X124.605 Y70.549 E86.11185
G0 F3600 X124.923 Y70.804
G1 F1800 X125.155 Y70.595 E86.11772
G1 X125.649 Y70.349 E86.1281
G1 X126 Y70.287 E86.13481
G1 X174 Y70.287 E87.03772
G1 X174.419 Y70.365 E87.04573
G1 X174.883 Y70.61 E87.0556
G1 X175.092 Y70.842 E87.06148
G1 X175.338 Y71.336 E87.07186
G1 X175.4 Y71.687 E87.07856
G1 X175.4 Y151.687 E88.58341
G1 X175.322 Y152.106 E88.59142
G1 X175.077 Y152.57 E88.60129
G1 X174.845 Y152.779 E88.60717
G1 X174.351 Y153.025 E88.61755
G1 X174 Y153.087 E88.62425
G1 X125.958 Y153.087 E89.52795
G1 X125.477 Y152.972 E89.53725
G1 X125.117 Y152.764 E89.54507
G1 X124.908 Y152.532 E89.55095
G1 X124.662 Y152.038 E89.56133
G1 X124.6 Y151.687 E89.56803
G1 X124.6 Y71.687 E91.07288
G1 X124.678 Y71.268 E91.08089
G1 X124.923 Y70.804 E91.09076
G0 F3600 X125.207 Y71.086
G1 F1800 X125.07 Y71.349 E91.09634
G1 X125 Y71.687 E91.10284
G1 X125 Y151.687 E92.60768
G1 X125.054 Y151.96 E92.61291
G1 X125.26 Y152.342 E92.62108
G1 X125.399 Y152.48 E92.62476
G1 X125.662 Y152.617 E92.63034
G1 X126 Y152.687 E92.63683
G1 X174 Y152.687 E93.53974
G1 X174.273 Y152.633 E93.54498
G1 X174.655 Y152.427 E93.55314
G1 X174.793 Y152.288 E93.55682
G1 X174.93 Y152.025 E93.5624
G1 X175 Y151.687 E93.56889
G1 X175 Y71.687 E95.07374
G1 X174.946 Y71.414 E95.07897
G1 X174.74 Y71.032 E95.08714
G1 X174.601 Y70.894 E95.09082
G1 X174.338 Y70.757 E95.0964
G1 X174 Y70.687 E95.10289
G1 X126 Y70.687 E96.0058
G1 X125.727 Y70.741 E96.01104
